X:1
T:You Gentlemen of High Reknown
M:5/4
L:1/4
K:A
 E| A A B- A B| c c d- e f| e/2 c3/2 e- d B| A4 E| A A B- A B| c c d- e f|\
 e/2 c3/2 e- d B| A4 c| e f e- c d| e f e2 E| A B c- B A| E4E/2-E/2|\
 A A B- A B| c c d- e f| e/2 c3/2 e- d B| A4||
